app/images/icons/cloud.svg

<svg width="30" height="22" viewBox="0 0 30 22" fill="none" xmlns="http://www.w3.org/2000/svg">
<path d="M6.75 21.5C4.84375 21.4375 3.25 20.7812 1.96875 19.5312C0.71875 18.25 0.0625 16.6562 0 14.75C0.03125 13.25 0.453125 11.9375 1.26562 10.8125C2.07812 9.6875 3.15625 8.875 4.5 8.375C4.5 8.25 4.5 8.125 4.5 8C4.5625 5.875 5.29688 4.10938 6.70312 2.70312C8.10938 1.29688 9.875 0.5625 12 0.5C13.4062 0.53125 14.6719 0.875 15.7969 1.53125C16.9219 2.21875 17.8281 3.125 18.5156 4.25C19.2344 3.75 20.0625 3.5 21 3.5C22.2812 3.53125 23.3438 3.96875 24.1875 4.8125C25.0312 5.65625 25.4688 6.71875 25.5 8C25.5 8.5625 25.4062 9.10938 25.2188 9.64062C26.5938 9.92188 27.7344 10.6094 28.6406 11.7031C29.5156 12.7656 29.9688 14.0312 30 15.5C29.9688 17.1875 29.3906 18.6094 28.2656 19.7656C27.1094 20.8906 25.6875 21.4688 24 21.5H6.75ZM15 6.5C14.3125 6.5625 13.9375 6.9375 13.875 7.625V12.875C13.9375 13.5625 14.3125 13.9375 15 14C15.6875 13.9375 16.0625 13.5625 16.125 12.875V7.625C16.0625 6.9375 15.6875 6.5625 15 6.5ZM16.5 17C16.5 16.5625 16.3594 16.2031 16.0781 15.9219C15.7969 15.6406 15.4375 15.5 15 15.5C14.5625 15.5 14.2031 15.6406 13.9219 15.9219C13.6406 16.2031 13.5 16.5625 13.5 17C13.5 17.4375 13.6406 17.7969 13.9219 18.0781C14.2031 18.3594 14.5625 18.5 15 18.5C15.4375 18.5 15.7969 18.3594 16.0781 18.0781C16.3594 17.7969 16.5 17.4375 16.5 17Z" fill="#1D53C0"/>
</svg>

<svg width="30" height="22" fill="none" xmlns="http://www.w3.org/2000/svg"><path d="M6.75 21.5c-1.906-.063-3.5-.719-4.781-1.969C.719 18.25.062 16.656 0 14.75c.031-1.5.453-2.813 1.266-3.938.812-1.124 1.89-1.937 3.234-2.437V8c.063-2.125.797-3.89 2.203-5.297C8.11 1.297 9.875.563 12 .5c1.406.031 2.672.375 3.797 1.031a8.08 8.08 0 012.719 2.719c.718-.5 1.547-.75 2.484-.75 1.281.031 2.344.469 3.188 1.313.843.843 1.28 1.906 1.312 3.187 0 .563-.094 1.11-.281 1.64 1.375.282 2.515.97 3.422 2.063.875 1.063 1.328 2.328 1.359 3.797-.031 1.688-.61 3.11-1.734 4.266C27.109 20.89 25.688 21.469 24 21.5H6.75zM15 6.5c-.688.063-1.063.438-1.125 1.125v5.25c.063.688.438 1.063 1.125 1.125.688-.063 1.063-.438 1.125-1.125v-5.25C16.062 6.937 15.687 6.562 15 6.5zM16.5 17c0-.438-.14-.797-.422-1.078-.281-.281-.64-.422-1.078-.422-.438 0-.797.14-1.078.422-.281.281-.422.64-.422 1.078 0 .438.14.797.422 1.078.281.281.64.422 1.078.422.438 0 .797-.14 1.078-.422.281-.281.422-.64.422-1.078z" fill="#1D53C0"/></svg>
